X:1
T:A-Mollspolskan
R:Polska
O:Torsker, Gstrikland
S:efter Hammarbergs-Hans
M:3/4
L:1/16
K:Am
e3c Acfde4|a3^g egbg a4|{f}e3d cBcd e2f2|e2d2 cBA^G^F4|
e3c Acfde4|a3^g egbg a4|{f}e3d cBcd e2c2|B2^GBA8:|:
e2e2 a2a2 ^c2d2|efged4e4|c3B ABcd e2c2|B2A2 ^G2G2 BcBA|
e2e2 a2a2 ^c2d2|efged4e4|c3B ABcd e2c2|B2^GBA8:|
